X:1
T:Molly Bawn
B:Everyman's Book Of British Ballads, ed. Roy Palmer
S:Packie Byrne, Songs Of Donegal Man (Topic 12TS257) 
Z:Roy Palmer
F:http://www.folkinfo.org/songs
M:3/4
L:1/8
K:Cmix
(3CDE|F2G3F|(ED) C3C|AB- B2(BA)|G4 (3GAB|c4A F|BG- G2E G|(FE) C3B,|C4 (3CDE|F2G3F|E D C3C|A(B B2) (3AGF|G4 (3GAB|c4A F|({Bc} BG G2)(EG)|(FE) C3B,|C4|]
w:Come__ all you young fow_-lers that_ han-dle a gun, Be_- ware of night ramb-ling_ by the set_ting of sun; And_ be-ware of an ac-ci-dent that hap-pend_ of__ late To__ young Mol-ly Bawn__ and_ sad_ was her fate.